svg/black/bqx.svg

<svg xmlns="http://www.w3.org/2000/svg" width="32" height="32" viewBox="0 0 32 32">
  <path fill-rule="evenodd" d="M16,32 C7.163444,32 0,24.836556 0,16 C0,7.163444 7.163444,0 16,0 C24.836556,0 32,7.163444 32,16 C32,24.836556 24.836556,32 16,32 Z M26.9542255,15.8581086 C26.9695309,15.8539451 26.9847655,15.8498534 27,15.8456899 C26.9788842,15.5553952 26.9703103,15.2634494 26.9338891,14.9750928 C26.8572204,14.36701 26.8022343,13.7527538 26.6729178,13.155654 C26.4366051,12.0641773 26.0055028,11.0446283 25.4363684,10.086311 C24.9811743,9.31980083 24.4337934,8.62643858 23.8018785,8.00356827 C23.2939657,7.50287444 22.7377984,7.06204851 22.1425172,6.67010753 C21.4062988,6.18527797 20.6165115,5.81616433 19.7864057,5.53685254 C19.0855456,5.30111368 18.3664749,5.15517668 17.628981,5.07104576 C16.504813,4.94269586 15.3918406,4.99028869 14.2855998,5.19731393 C12.9991662,5.43800589 11.7947865,5.90912469 10.6676425,6.58461271 C9.39998629,7.34437523 8.31195606,8.30843518 7.40709472,9.48641164 C6.61135526,10.5223274 6.00168987,11.6588845 5.58553869,12.9020409 C5.2405293,13.9326447 5.04120471,14.9918903 5.00712184,16.0787728 C4.98487231,16.7890761 5.01342823,17.4982308 5.11156707,18.2050167 C5.24804028,19.1884584 5.52247474,20.130337 5.92381653,21.0315141 C6.40232308,22.1061933 7.04089868,23.0745603 7.84790462,23.9314467 C8.31797903,24.4304895 8.81887682,24.8891179 9.37043835,25.2902472 C10.3076111,25.9716933 11.3345614,26.4728178 12.4352753,26.8186017 C12.6645021,26.8905293 12.900673,26.9401321 13.1336553,27 C11.0171868,25.8382467 9.42514101,24.2048004 8.47110396,21.9568107 C7.51678347,19.7079596 7.38328631,17.3951489 8.0967592,15.0758059 C9.29617878,11.1769263 12.6722257,8.19192965 17.2455664,8.04247523 C19.3591297,7.97341896 21.3169464,8.60274984 23.0414973,9.86011947 C25.0875327,11.3519359 26.3986959,13.3559315 26.9542255,15.8581086 Z M15.5891032,20.0883649 L15.5955514,20.0883649 C15.5955514,21.4578612 15.5984566,22.8273576 15.591725,24.1967821 C15.5908747,24.3555685 15.6588987,24.3931115 15.7879318,24.4007206 C16.3002378,24.4308699 16.8120478,24.4794678 17.3247789,24.4903789 C18.2820046,24.5104785 19.2380257,24.4849233 20.1609559,24.1802718 C21.12548,23.8619095 21.7595915,23.2342296 21.9155508,22.1875462 C22.0797296,21.0856609 21.4497988,20.1329428 20.3807586,19.8086942 C20.3377476,19.7956295 20.3049401,19.7480367 20.2674561,19.7165952 C20.3017515,19.6803443 20.3295988,19.6265062 20.3714761,19.6107137 C20.6929605,19.4895422 20.9566954,19.2926386 21.1899611,19.0378051 C21.8710518,18.2936916 21.7826205,17.0195962 20.9125506,16.3604032 C20.4022287,15.9737742 19.8163717,15.7867767 19.1892751,15.7217404 C18.3227482,15.6320103 17.4556543,15.671994 16.5896234,15.7282727 C16.2959155,15.7472955 16.0032704,15.7912991 15.7121134,15.8365949 C15.6659137,15.8437733 15.5944885,15.9182851 15.5942759,15.9619299 C15.5879695,17.3373843 15.5891032,18.7129105 15.5891032,20.0883649 Z M17.4624567,18.1541433 C17.4624567,17.8794257 17.4677711,17.6045646 17.4604727,17.3300623 C17.4560795,17.1686199 17.5027043,17.0839865 17.6789291,17.0869297 C18.0023975,17.0922417 18.3276374,17.0641024 18.6492635,17.0887961 C18.8497927,17.1041579 19.0598878,17.1601494 19.2399389,17.2506691 C19.8876552,17.5762099 19.926769,18.4665476 19.3245438,18.8854794 C19.0266552,19.0926482 18.6899362,19.1663704 18.3381244,19.1795069 C18.1028038,19.1883363 17.8666329,19.1712517 17.6312414,19.1789326 C17.4926424,19.1835268 17.4570007,19.1184186 17.4582052,18.9958115 C17.4609687,18.7152076 17.4591264,18.4346755 17.4591264,18.1541433 L17.4624567,18.1541433 Z M17.4592681,21.8202272 C17.4592681,21.4618094 17.463307,21.103248 17.4572841,20.7449019 C17.4548749,20.601262 17.5070267,20.5345746 17.6510109,20.5345746 C18.1228567,20.5344311 18.5935689,20.5356514 19.0537231,20.6695287 C20.0532512,20.9603259 20.130912,21.9006971 19.7694635,22.4782717 C19.5532746,22.8237684 19.2017462,22.9881539 18.8197488,23.0342392 C18.4238631,23.0819756 18.0208207,23.0698441 17.6207543,23.0789607 C17.5055386,23.0816885 17.4572132,23.0172264 17.4590555,22.895696 C17.4644408,22.53735 17.4609687,22.1787168 17.4609687,21.8202272 L17.4592681,21.8202272 Z M24.3838099,15.6318165 C24.3838099,15.5829315 24.3880614,15.5641959 24.3831722,15.5482598 C24.1825013,14.8828216 23.9045239,14.2527729 23.5257859,13.6715373 C22.8111084,12.5747486 21.8706762,11.7390386 20.6994583,11.1685706 C19.957642,10.8072815 19.1770662,10.5757779 18.3612739,10.5030606 C17.3738625,10.4150533 16.3959462,10.4874835 15.4374451,10.7813674 C14.2877681,11.1338272 13.2703128,11.7179341 12.395212,12.5442404 C11.669268,13.2297064 11.089434,14.0279452 10.6669764,14.9462787 C10.1075496,16.1624443 9.9026272,17.4358935 9.99318419,18.7658369 C10.0556813,19.6843139 10.3147395,20.5483787 10.7095623,21.3731058 C10.7806332,21.5217706 10.8682142,21.662252 10.9482133,21.806538 C10.9475755,21.5603904 10.9171773,21.33183 10.890818,21.1028388 C10.7770903,20.1146594 10.8766463,19.14177 11.1637644,18.1972353 C11.4877289,17.1310984 12.0017355,16.1614393 12.7390876,15.3220683 C13.3519416,14.624399 14.048692,14.0313908 14.8602328,13.5851093 C15.733137,13.1052329 16.6583347,12.7888805 17.6499976,12.6702214 C18.4425484,12.5753229 19.2236911,12.6081282 20.0066051,12.76512 C20.9823249,12.9608033 21.8803838,13.3380286 22.6798079,13.9307496 C23.0711587,14.2209725 23.427718,14.5630954 23.7778291,14.9050746 C23.9955769,15.1177708 24.1718017,15.3741835 24.3838099,15.6318165 Z"/>
</svg>

<svg xmlns="http://www.w3.org/2000/svg" width="32" height="32"><path fill-rule="evenodd" d="M16 32C7.163 32 0 24.837 0 16S7.163 0 16 0s16 7.163 16 16-7.163 16-16 16zm10.954-16.142l.046-.012c-.021-.29-.03-.583-.066-.87-.077-.609-.132-1.223-.261-1.82-.236-1.092-.667-2.111-1.237-3.07a10.304 10.304 0 0 0-1.634-2.082c-.508-.501-1.064-.942-1.66-1.334a10.129 10.129 0 0 0-2.356-1.133c-.7-.236-1.42-.382-2.157-.466a11.174 11.174 0 0 0-3.343.126c-1.287.241-2.491.712-3.618 1.388a11.575 11.575 0 0 0-3.26 2.901 11.631 11.631 0 0 0-1.822 3.416 11.058 11.058 0 0 0-.579 3.177c-.022.71.006 1.42.105 2.126.136.983.41 1.925.812 2.827a10.317 10.317 0 0 0 1.924 2.9c.47.498.97.957 1.522 1.358a10.541 10.541 0 0 0 3.065 1.529c.23.072.466.121.699.181-2.117-1.162-3.709-2.795-4.663-5.043-.954-2.249-1.088-4.562-.374-6.881 1.2-3.9 4.575-6.884 9.149-7.034 2.113-.069 4.07.56 5.795 1.818 2.047 1.492 3.358 3.496 3.913 5.998zm-11.365 4.23h.007c0 1.37.002 2.74-.004 4.109-.001.159.067.196.196.204.512.03 1.024.078 1.537.09.957.02 1.913-.006 2.836-.31.964-.32 1.599-.947 1.755-1.993.164-1.102-.466-2.055-1.535-2.38-.043-.012-.076-.06-.114-.091.035-.037.063-.09.104-.106.322-.121.586-.318.819-.573.681-.744.593-2.018-.277-2.678-.51-.386-1.097-.573-1.724-.638-.866-.09-1.733-.05-2.6.006a9.88 9.88 0 0 0-.877.109c-.046.007-.118.081-.118.125-.006 1.375-.005 2.75-.005 4.126zm1.873-1.934c0-.275.006-.55-.002-.824-.004-.161.043-.246.219-.243.323.005.649-.023.97.002.2.015.41.071.59.162.649.325.688 1.216.086 1.634-.298.208-.635.281-.987.295-.235.008-.471-.009-.707-.001-.138.005-.174-.06-.173-.183.003-.28.001-.561.001-.842h.003zm-.003 3.666c0-.358.004-.717-.002-1.075-.002-.144.05-.21.194-.21.472 0 .943 0 1.403.135 1 .29 1.077 1.23.715 1.808-.216.346-.567.51-.95.556-.395.048-.798.036-1.198.045-.115.003-.164-.062-.162-.183.005-.359.002-.717.002-1.076h-.002zm6.925-6.188c0-.05.004-.068 0-.084a7.242 7.242 0 0 0-.858-1.876 6.95 6.95 0 0 0-2.827-2.503 6.671 6.671 0 0 0-2.338-.666c-.987-.088-1.965-.016-2.924.278a7.627 7.627 0 0 0-3.042 1.763 7.706 7.706 0 0 0-1.728 2.402c-.56 1.216-.764 2.49-.674 3.82.063.918.322 1.782.717 2.607.07.149.158.29.238.434 0-.247-.03-.475-.057-.704a7.117 7.117 0 0 1 .273-2.906 7.687 7.687 0 0 1 1.575-2.875c.613-.698 1.31-1.29 2.121-1.737a7.628 7.628 0 0 1 2.79-.915 7.403 7.403 0 0 1 2.357.095 6.607 6.607 0 0 1 2.673 1.166c.391.29.748.632 1.098.974.218.213.394.47.606.727z"/></svg>
